icon-themes/sifr_svg/cmd/sc_basicshapes.pentagon.svg

<svg viewBox="0 0 16 16" xmlns="http://www.w3.org/2000/svg"><g fill="#555753"><path d="m8 0-8 8 4 7h8l4-7zm0 2.828125 5.505859 5.5058594-2.666015 4.6660156h-5.6796878l-2.6660156-4.6660156z"/><path d="m8 2.828125 5.505859 5.5058594-2.666015 4.6660156h-5.6796878l-2.6660156-4.6660156z" opacity=".35"/></g></svg>

<svg xmlns="http://www.w3.org/2000/svg" viewBox="0 0 16 16">
  <path
     style="fill:#555753"
     d="M 8 0 L 0 8 L 4 15 L 12 15 L 16 8 L 8 0 z M 8 2.828125 L 13.505859 8.3339844 L 10.839844 13 L 5.1601562 13 L 2.4941406 8.3339844 L 8 2.828125 z "
     />
  <path
     style="fill:#555753;opacity:0.35"
     d="M 8,2.828125 13.505859,8.3339844 10.839844,13 H 5.1601562 L 2.4941406,8.3339844 Z"
     />
</svg>
